X:16
T:Jigg, A
M:6/4
L:1/4
Q:3/4=110
S:D.Wright, Extraordinary Collection, London 1713
Z:Pete Stewart, 2004 <www.hornpipemusic.co.uk>
K:F
DFACDE | B,CDECA, | DFACDE | EA,CD3 ||
fedabc' | gecgab | agfefd | cdeA3 |
F2EFef | e2dcea | AGFEFD | EA,CD3 |]

